X: 13552
T: Flute Maker Martin Doyle, The
R: jig
M: 6/8
K: Adorian
|:~A3 EAc|~G3 DGB|~A3 EAc|BAG A2G|
~A3 EAc|~G3 DGB|~A3 edB|1 cAG A2G:|2 cAG A2B||
|:cGc cGc|cGe ged|BGB BGB|BGB dcB|
cAc cAc|cAe ged|BGB dcB|1 cAG A2 B:|2 cAG A2G||

